X: 78
%%NRChange 2017-10-23
T: Skomakaren
T: The Shoemaker
R: Wedding March
O: Sweden
M: 4/4
L: 1/8
K: F
P: A
[V:1]|: D2 |"Gm"(D3G)G2A2 |"D7"G2^F2(D3D) | (D3A)A2B2 | "Gm"(A2G2)G2 :|
[V:2]|: B,2 | (B,3D)D2^F2 | D2C2(A,3A,) | (A,3^F)F2G2 | (^F2[DB,]2)[DB,]2 :|
P: B
[V:1]|: (GB) | "Gm"d3d(c2B2) | "D7"(B2A2)A2(AB) | c3c (B2A2) | "Gm"(A2G2)G2(GA) |
[V:2]|: (DG) | B3B(A2G2) | (G2^F2) F2 (FG) | A3A(G2^F2) | (^F2[DB,]2)[DB,]2(DG) | 
[V:1]d3d(c2B2) | "D7"(B2A2)A2^F2 | D3D^F2(A<F) | "Gm"G6 :|
[V:2]B3B(A2G2) | (G2^F2)F2D2 | A,3A,D2^F2 | [DB,]6 :|

